wilib/img/svg/btn-seta-dir.svg

<svg xmlns="http://www.w3.org/2000/svg" version="1.1" xmlns:xlink="http://www.w3.org/1999/xlink" preserveAspectRatio="none" x="0px" y="0px" width="358px" height="407px" viewBox="0 0 358 407">
<defs>
<linearGradient id="Gradient_1" gradientUnits="userSpaceOnUse" x1="32.8625" y1="43.45" x2="-7.862500000000001" y2="43.45" spreadMethod="pad">
<stop  offset="0%" stop-color="#D9E021" stop-opacity="0.4"/>

<stop  offset="100%" stop-color="#FFFFFF" stop-opacity="0.4"/>
</linearGradient>

<linearGradient id="Gradient_2" gradientUnits="userSpaceOnUse" x1="-6.350000000000001" y1="51.15" x2="22.75" y2="51.15" spreadMethod="pad">
<stop  offset="0%" stop-color="#FFFFFF" stop-opacity="0"/>

<stop  offset="100%" stop-color="#8CC63F" stop-opacity="0.4"/>
</linearGradient>

<linearGradient id="Gradient_3" gradientUnits="userSpaceOnUse" x1="26.987499999999997" y1="39.65" x2="76.0125" y2="39.65" spreadMethod="pad">
<stop  offset="0%" stop-color="#D9E021" stop-opacity="0.5019607843137255"/>

<stop  offset="100%" stop-color="#FFFFFF" stop-opacity="0.5019607843137255"/>
</linearGradient>

<g id="gr_mais_0_Layer0_0_FILL">
<path fill="#EFEFEF" stroke="none" d="
M 80.5 45.8
Q 80.5 40.5 75.8 37.7
L 17.15 3.6
Q 15 2.35 12.45 2.35 9.9 2.35 7.75 3.6 3.15 6.3 3 11.75
L 3 79.95
Q 3.15 85.4 7.75 88.1 9.9 89.35 12.45 89.35 15 89.35 17.15 88.1
L 75.8 54
Q 80.5 51.2 80.5 45.8 Z"/>
</g>

<g id="gr_mais_0_Layer0_1_FILL">
<path fill="#FFFFFF" stroke="none" d="
M 79.4 43.45
Q 79.4 38.1 74.7 35.3
L 16.1 1.2
Q 13.9 0 11.4 0 8.8 0 6.7 1.2 2.05 3.95 1.9 9.4
L 1.9 77.55
Q 2.05 83 6.7 85.7 8.8 86.95 11.4 86.95 13.9 86.95 16.1 85.7
L 74.7 51.6
Q 79.4 48.8 79.4 43.45 Z"/>
</g>

<g id="gr_mais_0_Layer0_2_FILL">
<path fill="#D9E021" stroke="none" d="
M 74.35 43.5
Q 74.37578125 40.50078125 71.9 39
L 15.35 6.1
Q 12.8306640625 4.694921875 10.15 6.1 7.6525390625 7.554296875 7.65 10.55
L 7.65 76.4
Q 7.6525390625 79.395703125 10.15 80.8 12.8306640625 82.39140625 15.35 80.8
L 71.9 47.9
Q 74.37578125 46.4275390625 74.35 43.5 Z"/>
</g>

<g id="gr_mais_0_Layer0_3_FILL">
<path fill="url(#Gradient_1)" stroke="none" d="
M 74.4 43.55
Q 74.4 40.55 71.95 39.05
L 15.35 6.15
Q 12.8 4.7 10.15 6.15 7.65 7.6 7.65 10.6
L 7.65 76.45
Q 7.65 79.4 10.15 80.85 12.8 82.4 15.35 80.85
L 71.95 47.95
Q 74.4 46.45 74.4 43.55 Z"/>
</g>

<g id="gr_mais_0_Layer0_5_MEMBER_0_FILL">
<path fill="url(#Gradient_2)" stroke="none" d="
M 74.4 43.5
Q 74.4 40.5 71.95 39.05
L 15.35 6.15
Q 12.8 4.7 10.15 6.15 7.65 7.55 7.65 10.55
L 7.65 76.4
Q 7.65 79.4 10.15 80.85 12.8 82.4 15.35 80.85
L 71.95 47.95
Q 74.4 46.45 74.4 43.5 Z"/>
</g>

<g id="gr_mais_0_Layer0_5_MEMBER_1_FILL">
<path fill="url(#Gradient_3)" stroke="none" d="
M 73.9 43.65
Q 73.9029296875 40.6814453125 71.25 39.05
L 29.1 15.1
Q 43.8765625 32.7703125 43.85 54 43.8697265625 60.2916015625 42.75 64.15
L 71.25 48.3
Q 73.9029296875 46.7365234375 73.9 43.65 Z"/>
</g>

<path id="gr_mais_0_Layer0_1_1_STROKES" stroke="#EAE9E8" stroke-width="1" stroke-linejoin="round" stroke-linecap="round" fill="none" d="
M 79.4 43.45
Q 79.4 48.8 74.7 51.6
L 16.1 85.7
Q 13.9 86.95 11.4 86.95 8.8 86.95 6.7 85.7 2.05 83 1.9 77.55
L 1.9 9.4
Q 2.05 3.95 6.7 1.2 8.8 0 11.4 0 13.9 0 16.1 1.2
L 74.7 35.3
Q 79.4 38.1 79.4 43.45 Z"/>

<path id="gr_mais_0_Layer0_2_1_STROKES" stroke="#8CC63F" stroke-width="2" stroke-linejoin="round" stroke-linecap="round" fill="none" d="
M 74.375 43.5
Q 74.37578125 40.50078125 71.925 39
L 15.35 6.125
Q 12.8306640625 4.694921875 10.175 6.125 7.6525390625 7.554296875 7.65 10.55
L 7.65 76.4
Q 7.6525390625 79.395703125 10.175 80.825 12.8306640625 82.39140625 15.35 80.825
L 71.925 47.925
Q 74.37578125 46.4275390625 74.375 43.5 Z"/>

<font horiz-adv-x="2048">
<!--  Nome da fonte: Times New Roman
ID do fornecedor: TMC 
© 2010 The Monotype Corporation. All Rights Reserved.
URL for more Information: http://www.adobe.com/go/font_vendor_id?ID=TMC&Name=Times%20New%20Roman&PSName=TimesNewRomanPSMT&applanguage=pt_BR-->
<font-face font-family="HelveticaRounded_Black_Regular" units-per-em="2048" ascent="1825" descent="443"/>

<glyph unicode="+" horiz-adv-x="1155" d="
M 535 141
L 535 640 37 640 37 722 535 722 535 1219 615 1219 615 722 1115 722 1115 640 615 640 615 141 535 141 Z"/>
</font>
</defs>

<g transform="matrix( 6.77215576171875, 0, 0, 6.77215576171875, 0,0) ">
<g transform="matrix( 0.671875, 0, 0, 0.671875, -1.3,0) ">
<g transform="matrix( 1, 0, 0, 1, 0,0) ">
<use xlink:href="#gr_mais_0_Layer0_0_FILL"/>
</g>

<g transform="matrix( 1, 0, 0, 1, 0,0) ">
<use xlink:href="#gr_mais_0_Layer0_1_FILL"/>

<use xlink:href="#gr_mais_0_Layer0_1_1_STROKES"/>
</g>

<g transform="matrix( 1, 0, 0, 1, 0,0) ">
<use xlink:href="#gr_mais_0_Layer0_2_FILL"/>

<use xlink:href="#gr_mais_0_Layer0_2_1_STROKES"/>
</g>

<g transform="matrix( 1, 0, 0, 1, 0,0) ">
<use xlink:href="#gr_mais_0_Layer0_3_FILL"/>
</g>

<g transform="matrix( 1, 0, 0, 1, -39.9,11.8) ">
<clipPath id="Mask_Mask_1">
<rect x="56.75" y="-2" width="30.5" height="54.3" fill="#FFFFFF" stroke="none"/>
</clipPath>

<text clip-path="url(#Mask_Mask_1)" writing-mode="lr"><tspan x="58.85" y="40.75" baseline-shift="0%" kerning="auto" font-family="HelveticaRounded_Black_Regular" font-size="45" fill="#FFFFFF" xml:space="preserve">+</tspan></text>
</g>

<g transform="matrix( 1, 0, 0, 1, 0,0) ">
<use xlink:href="#gr_mais_0_Layer0_5_MEMBER_0_FILL"/>
</g>

<g transform="matrix( 1, 0, 0, 1, 0,0) ">
<use xlink:href="#gr_mais_0_Layer0_5_MEMBER_1_FILL"/>
</g>
</g>
</g>
</svg>

<svg xmlns="http://www.w3.org/2000/svg" xmlns:xlink="http://www.w3.org/1999/xlink" preserveAspectRatio="none" width="358" height="407" viewBox="0 0 358 407"><defs><linearGradient id="a" gradientUnits="userSpaceOnUse" x1="32.862" y1="43.45" x2="-7.863" y2="43.45"><stop offset="0%" stop-color="#D9E021" stop-opacity=".4"/><stop offset="100%" stop-color="#FFF" stop-opacity=".4"/></linearGradient><linearGradient id="b" gradientUnits="userSpaceOnUse" x1="-6.35" y1="51.15" x2="22.75" y2="51.15"><stop offset="0%" stop-color="#FFF" stop-opacity="0"/><stop offset="100%" stop-color="#8CC63F" stop-opacity=".4"/></linearGradient><linearGradient id="c" gradientUnits="userSpaceOnUse" x1="26.987" y1="39.65" x2="76.013" y2="39.65"><stop offset="0%" stop-color="#D9E021" stop-opacity=".502"/><stop offset="100%" stop-color="#FFF" stop-opacity=".502"/></linearGradient><path fill="#EFEFEF" d="M80.5 45.8q0-5.3-4.7-8.1L17.15 3.6Q15 2.35 12.45 2.35q-2.55 0-4.7 1.25Q3.15 6.3 3 11.75v68.2q.15 5.45 4.75 8.15 2.15 1.25 4.7 1.25 2.55 0 4.7-1.25L75.8 54q4.7-2.8 4.7-8.2z" id="d"/><path fill="#FFF" d="M79.4 43.45q0-5.35-4.7-8.15L16.1 1.2Q13.9 0 11.4 0 8.8 0 6.7 1.2 2.05 3.95 1.9 9.4v68.15Q2.05 83 6.7 85.7q2.1 1.25 4.7 1.25 2.5 0 4.7-1.25l58.6-34.1q4.7-2.8 4.7-8.15z" id="e"/><path fill="#D9E021" d="M74.35 43.5q.026-3-2.45-4.5L15.35 6.1q-2.52-1.405-5.2 0-2.497 1.454-2.5 4.45V76.4q.003 2.996 2.5 4.4 2.68 1.59 5.2 0L71.9 47.9q2.476-1.472 2.45-4.4z" id="g"/><path fill="url(#a)" d="M74.4 43.55q0-3-2.45-4.5l-56.6-32.9q-2.55-1.45-5.2 0-2.5 1.45-2.5 4.45v65.85q0 2.95 2.5 4.4 2.65 1.55 5.2 0l56.6-32.9q2.45-1.5 2.45-4.4z" id="i"/><path fill="url(#b)" d="M74.4 43.5q0-3-2.45-4.45l-56.6-32.9q-2.55-1.45-5.2 0-2.5 1.4-2.5 4.4V76.4q0 3 2.5 4.45 2.65 1.55 5.2 0l56.6-32.9q2.45-1.5 2.45-4.45z" id="k"/><path fill="url(#c)" d="M73.9 43.65q.003-2.97-2.65-4.6L29.1 15.1Q43.877 32.77 43.85 54q.02 6.292-1.1 10.15l28.5-15.85q2.653-1.563 2.65-4.65z" id="l"/><path id="f" stroke="#EAE9E8" stroke-linejoin="round" stroke-linecap="round" fill="none" d="M79.4 43.45q0 5.35-4.7 8.15L16.1 85.7q-2.2 1.25-4.7 1.25-2.6 0-4.7-1.25-4.65-2.7-4.8-8.15V9.4q.15-5.45 4.8-8.2Q8.8 0 11.4 0q2.5 0 4.7 1.2l58.6 34.1q4.7 2.8 4.7 8.15z"/><path id="h" stroke="#8CC63F" stroke-width="2" stroke-linejoin="round" stroke-linecap="round" fill="none" d="M74.375 43.5q0-3-2.45-4.5L15.35 6.125q-2.52-1.43-5.175 0-2.522 1.43-2.525 4.425V76.4q.003 2.996 2.525 4.425 2.656 1.566 5.175 0l56.575-32.9q2.45-1.497 2.45-4.425z"/></defs><use xlink:href="#d" transform="translate(-8.804) scale(4.55004)"/><g transform="translate(-8.804) scale(4.55004)"><use xlink:href="#e"/><use xlink:href="#f"/></g><g transform="translate(-8.804) scale(4.55004)"><use xlink:href="#g"/><use xlink:href="#h"/></g><use xlink:href="#i" transform="translate(-8.804) scale(4.55004)"/><g transform="translate(-190.35 53.69) scale(4.55004)"><clipPath id="j"><path fill="#FFF" d="M56.75-2h30.5v54.3h-30.5z"/></clipPath><text clip-path="url(#j)" writing-mode="lr"><tspan x="58.85" y="40.75" baseline-shift="0%" font-family="HelveticaRounded_Black_Regular" font-size="45" fill="#FFF">+</tspan></text></g><use xlink:href="#k" transform="translate(-8.804) scale(4.55004)"/><use xlink:href="#l" transform="translate(-8.804) scale(4.55004)"/></svg>
